src/assets/noDraft.svg

<svg width="206" height="167" viewBox="0 0 206 167" fill="none" xmlns="http://www.w3.org/2000/svg">
<circle cx="125.704" cy="80.7957" r="80.2957" fill="#FEF3F1"/>
<path fill-rule="evenodd" clip-rule="evenodd" d="M140.272 88.3496C140.277 88.3465 140.283 88.3434 140.288 88.3402C140.289 88.3396 140.29 88.3394 140.291 88.3388C140.293 88.3379 140.295 88.3368 140.296 88.3359C140.286 88.3414 140.279 88.3456 140.272 88.3496Z" fill="#2B2C2A"/>
<path fill-rule="evenodd" clip-rule="evenodd" d="M140.272 88.3496C140.277 88.3465 140.283 88.3434 140.288 88.3402C140.289 88.3396 140.29 88.3394 140.291 88.3388C140.293 88.3379 140.295 88.3368 140.296 88.3359C140.286 88.3414 140.279 88.3456 140.272 88.3496Z" stroke="#F8F2E6" stroke-width="0.8" stroke-linecap="round" stroke-linejoin="round"/>
<path fill-rule="evenodd" clip-rule="evenodd" d="M140.3 88.332C140.3 88.3315 140.301 88.3312 140.302 88.3307C140.317 88.3218 140.325 88.3172 140.328 88.3155C140.329 88.3152 140.329 88.3149 140.33 88.3149C140.318 88.3213 140.308 88.3272 140.3 88.332Z" fill="#2B2C2A"/>
<path fill-rule="evenodd" clip-rule="evenodd" d="M140.3 88.332C140.3 88.3315 140.301 88.3312 140.302 88.3307C140.317 88.3218 140.325 88.3172 140.328 88.3155C140.329 88.3152 140.329 88.3149 140.33 88.3149C140.318 88.3213 140.308 88.3272 140.3 88.332Z" stroke="#F8F2E6" stroke-width="0.8" stroke-linecap="round" stroke-linejoin="round"/>
<path fill-rule="evenodd" clip-rule="evenodd" d="M154.537 80.2888C143.235 86.6746 140.777 88.0633 140.333 88.3146C140.333 88.3144 140.332 88.3149 140.331 88.3155C140.326 88.3179 140.315 88.3245 140.302 88.332C140.298 88.3339 140.294 88.3364 140.29 88.3386C140.289 88.3389 140.288 88.3394 140.288 88.34C140.279 88.3452 140.267 88.3515 140.254 88.3587C140.253 88.3592 140.252 88.3598 140.252 88.3603C140.251 88.3609 140.25 88.3614 140.249 88.3617C140.243 88.3653 140.244 88.3647 140.249 88.3617C140.25 88.3614 140.251 88.3609 140.252 88.3603C140.252 88.36 140.252 88.3598 140.253 88.3595C139.831 88.5979 137.425 89.9575 126.141 96.3334C108.662 86.4515 114.498 89.7501 97.7479 80.2879C103.177 77.2207 120.724 67.3058 126.144 64.2436C143.686 74.1612 136.997 70.3808 154.537 80.2888ZM83.5497 56.2226C83.5475 94.651 83.5559 69.0116 83.5514 104.354C116.396 122.908 93.4307 109.942 126.142 128.42C130.46 125.981 163.784 107.152 168.735 104.354C168.737 65.926 168.729 91.5653 168.733 56.2226C135.621 37.5186 158.643 50.5153 126.142 32.1567C97.0172 48.6128 107.822 42.5075 83.5497 56.2226Z" stroke="#F8F2E6" stroke-width="0.8" stroke-linecap="round" stroke-linejoin="round"/>
<path fill-rule="evenodd" clip-rule="evenodd" d="M126.143 128.42C130.46 125.981 163.785 107.151 168.734 104.355L168.736 88.3097C163.485 91.2771 131.394 109.409 126.145 112.375C122.037 110.055 101.871 98.663 97.7464 96.3331L97.7484 80.2879C103.186 77.2157 120.715 67.3111 126.144 64.2436C143.596 74.1097 137.056 70.4143 154.537 80.2887L154.539 64.2438C150.431 61.9233 130.265 50.5318 126.14 48.2017C121.589 50.7735 87.9712 69.7685 83.5491 72.267C83.5544 91.9861 83.5539 84.7122 83.5516 104.354C116.396 122.907 93.4314 109.942 126.143 128.42Z" fill="url(#paint0_linear)"/>
<path fill-rule="evenodd" clip-rule="evenodd" d="M126.143 128.42C130.46 125.981 163.785 107.151 168.734 104.355L168.736 88.3097C163.485 91.2771 131.394 109.409 126.145 112.375C122.037 110.055 101.871 98.663 97.7464 96.3331L97.7484 80.2879C103.186 77.2157 120.715 67.3111 126.144 64.2436C143.596 74.1097 137.056 70.4143 154.537 80.2887L154.539 64.2438C150.431 61.9233 130.265 50.5318 126.14 48.2017C121.589 50.7735 87.9712 69.7685 83.5491 72.267C83.5544 91.9861 83.5539 84.7122 83.5516 104.354C116.396 122.907 93.4314 109.942 126.143 128.42Z" stroke="#FF8A8A" stroke-linejoin="round"/>
<path fill-rule="evenodd" clip-rule="evenodd" d="M126.14 48.2017C130.248 50.5222 150.415 61.914 154.539 64.2438L154.537 80.2887C125.377 96.7652 155.31 79.8523 126.141 96.3334C108.694 86.4694 115.13 90.1071 97.7484 80.2879L97.7464 96.3331C101.855 98.6536 122.021 110.045 126.145 112.375C131.395 109.409 163.487 91.276 168.736 88.3097C168.731 68.5908 168.732 75.8645 168.734 56.2232C135.621 37.5181 158.643 50.5158 126.142 32.1567C97.0174 48.6131 107.823 42.5075 83.5511 56.2221L83.5491 72.267C87.9316 69.7908 121.929 50.581 126.14 48.2017Z" fill="url(#paint1_linear)" fill-opacity="0.7"/>
<path fill-rule="evenodd" clip-rule="evenodd" d="M126.14 48.2017C130.248 50.5222 150.415 61.914 154.539 64.2438L154.537 80.2888C125.377 96.7652 155.31 79.8523 126.141 96.3334C108.694 86.4694 115.13 90.1071 97.7484 80.2879L97.7464 96.3331C101.855 98.6536 122.021 110.045 126.145 112.375C131.395 109.409 163.487 91.276 168.736 88.3097C168.731 68.5908 168.732 75.8645 168.734 56.2232C135.621 37.5181 158.643 50.5158 126.142 32.1567C97.0174 48.6131 107.823 42.5075 83.5511 56.2221L83.5491 72.267C87.9316 69.7908 121.929 50.581 126.14 48.2017Z" stroke="#FF8A8A" stroke-linejoin="round"/>
<path d="M97.1727 108.961L121.837 152.46H108.703L94.7085 132.117L95.7405 151.27H50.6139L39.9666 122.39L18.6257 162.014H5.35133L29.2151 110.853C31.4274 106.11 36.2337 103.071 41.5222 103.071H53.9542H85.9438C90.4458 103.071 94.6526 105.278 97.1727 108.961Z" fill="#242424"/>
<path fill-rule="evenodd" clip-rule="evenodd" d="M186.293 153.863L192.097 141.874C192.431 141.199 193.127 140.767 193.901 140.767C195.001 140.767 195.889 141.628 195.889 142.689V166.812H186.293V153.863Z" fill="#242424"/>
<path fill-rule="evenodd" clip-rule="evenodd" d="M50.5869 151.048L50.5869 153.813C50.5868 160.148 52.9526 166.812 61.5136 166.812H186.293V153.944L95.4788 151.048H50.5869Z" fill="#6893C0"/>
<path fill-rule="evenodd" clip-rule="evenodd" d="M50.5868 151.048L50.5868 153.813C50.5867 160.148 52.9525 166.812 61.5135 166.812H148.686V150.981L95.4787 148.09L50.5868 151.048Z" fill="#242424"/>
<path fill-rule="evenodd" clip-rule="evenodd" d="M39.381 122.262L36.8791 115.075L37.8054 114.722L40.306 121.909L39.381 122.262Z" fill="#656565"/>
<path fill-rule="evenodd" clip-rule="evenodd" d="M93.9685 131.857L93.0808 117.517L94.2492 117.464L95.137 131.804L93.9685 131.857Z" fill="#656565"/>
<path fill-rule="evenodd" clip-rule="evenodd" d="M5.69406 162.014L0 164.109V166.812H16.5135L19.0591 162.014H5.69406Z" fill="#F5C5B6"/>
<path d="M72.6909 131.569L56.9963 102.245H77.6471L72.6909 131.569Z" fill="white"/>
<path fill-rule="evenodd" clip-rule="evenodd" d="M62.7212 85.4367C62.8342 85.3879 62.9559 85.3576 63.0752 85.3235C63.3332 85.2499 63.5994 85.1977 63.8797 85.1977C64.4616 85.1977 65.0008 85.3728 65.458 85.6654C67.5116 84.1809 68.1483 81.5542 68.1483 81.5542C74.8133 81.5542 78.6882 86.6125 78.6882 86.6125V93.6507C78.6882 95.56 76.9217 96.9748 75.0722 96.5427L71.5775 95.6229V103.378L67.3295 107.698L63.0815 103.378L63.0752 103.373V91.0045C63.0704 91.0031 63.0646 91.0011 63.0587 90.9997C61.8324 90.6402 60.9305 89.5137 60.9305 88.1643C60.9305 86.9397 61.6685 85.8892 62.7212 85.4367Z" fill="#F5C5B6"/>
<path fill-rule="evenodd" clip-rule="evenodd" d="M45.1772 99.8276C51.881 97.3599 55.0905 87.418 59.862 80.8616C60.4861 79.7814 61.3099 78.8719 62.2618 78.1379C62.2671 78.133 62.272 78.1277 62.2773 78.1228V78.1252C64.0996 76.7256 66.4934 75.8118 68.7637 75.8118C73.7476 75.8118 80.6576 78.1228 78.6879 86.6124C78.6879 86.6124 74.813 81.5541 68.148 81.5541C68.148 81.5541 67.5114 84.1808 65.4578 85.6653C65.0005 85.3727 64.4613 85.1976 63.8794 85.1976C63.5992 85.1976 63.3329 85.2498 63.075 85.3234C62.9557 85.3576 62.834 85.3878 62.721 85.4366C61.6683 85.8892 60.9302 86.9396 60.9302 88.1642C60.9302 89.5136 61.8322 90.6402 63.0585 90.9996C63.0643 91.0011 63.0701 91.003 63.075 91.0045V103.373L63.0759 103.378C63.0905 103.48 65.3895 120.882 50.3847 120.204C44.3568 119.931 40.846 116.311 39.4364 112.941C37.3275 107.899 38.2097 102.392 45.1772 99.8276Z" fill="#EC6A6A"/>
<path fill-rule="evenodd" clip-rule="evenodd" d="M69.8504 91.8967C68.7854 91.5635 67.8468 90.8233 67.2904 89.756L68.2433 89.2552C69.0834 90.8654 71.0712 91.485 72.6778 90.6424L73.174 91.5965C72.1093 92.1567 70.9169 92.2303 69.8504 91.8967Z" fill="#242424"/>
<defs>
<linearGradient id="paint0_linear" x1="165.041" y1="49.0657" x2="-29.0132" y2="207.289" gradientUnits="userSpaceOnUse">
<stop stop-color="#FFE6CF"/>
<stop offset="1" stop-color="#FF8888"/>
</linearGradient>
<linearGradient id="paint1_linear" x1="215.323" y1="-3.94148" x2="86.1891" y2="99.9376" gradientUnits="userSpaceOnUse">
<stop stop-color="#FFB36D"/>
<stop offset="1" stop-color="#FF8888"/>
</linearGradient>
</defs>
</svg>

<svg width="206" height="167" viewBox="0 0 206 167" fill="none" xmlns="http://www.w3.org/2000/svg"><circle cx="125.704" cy="80.796" r="80.296" fill="#FEF3F1"/><path fill-rule="evenodd" clip-rule="evenodd" d="M140.272 88.35l.016-.01.003-.001a.022.022 0 00.005-.003l-.024.014z" fill="#2B2C2A"/><path clip-rule="evenodd" d="M140.272 88.35l.016-.01.003-.001a.022.022 0 00.005-.003l-.024.014z" stroke="#F8F2E6" stroke-width=".8" stroke-linecap="round" stroke-linejoin="round"/><path fill-rule="evenodd" clip-rule="evenodd" d="M140.3 88.332l.002-.001.026-.016h.002a.667.667 0 00-.03.017z" fill="#2B2C2A"/><path clip-rule="evenodd" d="M140.3 88.332l.002-.001.026-.016h.002a.667.667 0 00-.03.017z" stroke="#F8F2E6" stroke-width=".8" stroke-linecap="round" stroke-linejoin="round"/><path clip-rule="evenodd" d="M154.537 80.289l-14.204 8.026h-.002l-.029.017-.012.007-.002.001-.034.019-.002.001a.013.013 0 01-.003.002c-.006.003-.005.003 0 0l.003-.002h.001l-14.112 7.973c-17.479-9.882-11.643-6.583-28.393-16.045l28.396-16.044c17.542 9.917 10.853 6.137 28.393 16.045zM83.55 56.223c-.002 38.428.006 12.789.001 48.131 32.845 18.554 9.88 5.588 42.591 24.066l42.593-24.066c.002-38.428-.006-12.789-.002-48.131-33.112-18.704-10.09-5.708-42.591-24.066-29.125 16.456-18.32 10.35-42.592 24.066z" stroke="#F8F2E6" stroke-width=".8" stroke-linecap="round" stroke-linejoin="round"/><path fill-rule="evenodd" clip-rule="evenodd" d="M126.143 128.42l42.591-24.065.002-16.045-42.591 24.065-28.399-16.042.002-16.045 28.396-16.044c17.452 9.866 10.912 6.17 28.393 16.045l.002-16.045-28.399-16.042-42.59 24.065c.004 19.72.004 12.445.002 32.087 32.844 18.553 9.88 5.588 42.591 24.066z" fill="url(#paint0_linear)"/><path clip-rule="evenodd" d="M126.143 128.42l42.591-24.065.002-16.045-42.591 24.065-28.399-16.042.002-16.045 28.396-16.044c17.452 9.866 10.912 6.17 28.393 16.045l.002-16.045-28.399-16.042-42.59 24.065c.004 19.72.004 12.445.002 32.087 32.844 18.553 9.88 5.588 42.591 24.066z" stroke="#FF8A8A" stroke-linejoin="round"/><path fill-rule="evenodd" clip-rule="evenodd" d="M126.14 48.202l28.399 16.042-.002 16.045-28.396 16.044c-17.447-9.864-11.011-6.226-28.393-16.045l-.002 16.045 28.399 16.042 42.591-24.065c-.005-19.72-.004-12.445-.002-32.087-33.113-18.705-10.091-5.707-42.592-24.066l-42.59 24.065-.003 16.045 42.591-24.065z" fill="url(#paint1_linear)" fill-opacity=".7"/><path clip-rule="evenodd" d="M126.14 48.202l28.399 16.042-.002 16.045-28.396 16.044c-17.447-9.864-11.011-6.226-28.393-16.045l-.002 16.045 28.399 16.042 42.591-24.065c-.005-19.72-.004-12.445-.002-32.087-33.113-18.705-10.091-5.707-42.592-24.066l-42.59 24.065-.003 16.045 42.591-24.065z" stroke="#FF8A8A" stroke-linejoin="round"/><path d="M97.173 108.961l24.664 43.499h-13.134l-13.995-20.343 1.032 19.153H50.614l-10.647-28.88-21.341 39.624H5.35l23.864-51.161c2.212-4.743 7.019-7.782 12.307-7.782h44.422c4.502 0 8.709 2.207 11.229 5.89z" fill="#242424"/><path fill-rule="evenodd" clip-rule="evenodd" d="M186.293 153.863l5.804-11.989a2.005 2.005 0 011.804-1.107c1.1 0 1.988.861 1.988 1.922v24.123h-9.596v-12.949z" fill="#242424"/><path fill-rule="evenodd" clip-rule="evenodd" d="M50.587 151.048v2.765c0 6.335 2.366 12.999 10.927 12.999h124.779v-12.868l-90.814-2.896H50.587z" fill="#6893C0"/><path fill-rule="evenodd" clip-rule="evenodd" d="M50.587 151.048v2.765c0 6.335 2.365 12.999 10.926 12.999h87.173v-15.831l-53.207-2.891-44.892 2.958z" fill="#242424"/><path fill-rule="evenodd" clip-rule="evenodd" d="M39.381 122.262l-2.502-7.187.926-.353 2.501 7.187-.925.353zM93.969 131.857l-.888-14.34 1.168-.053.888 14.34-1.168.053z" fill="#656565"/><path fill-rule="evenodd" clip-rule="evenodd" d="M5.694 162.014L0 164.109v2.703h16.514l2.545-4.798H5.694z" fill="#F5C5B6"/><path d="M72.69 131.569l-15.694-29.324h20.651l-4.956 29.324z" fill="#fff"/><path fill-rule="evenodd" clip-rule="evenodd" d="M62.721 85.437c.113-.05.235-.08.354-.114.258-.073.524-.125.805-.125.582 0 1.12.175 1.578.467 2.054-1.484 2.69-4.11 2.69-4.11 6.665 0 10.54 5.057 10.54 5.057v7.039c0 1.909-1.766 3.324-3.616 2.892l-3.495-.92v7.755l-4.248 4.32-4.247-4.32-.007-.005V91.004c-.005 0-.01-.003-.016-.004a2.955 2.955 0 01-2.128-2.836c0-1.224.738-2.275 1.79-2.727z" fill="#F5C5B6"/><path fill-rule="evenodd" clip-rule="evenodd" d="M45.177 99.828c6.704-2.468 9.913-12.41 14.685-18.966a9.34 9.34 0 012.4-2.724l.015-.015v.002c1.823-1.4 4.216-2.313 6.487-2.313 4.984 0 11.894 2.31 9.924 10.8 0 0-3.875-5.058-10.54-5.058 0 0-.637 2.627-2.69 4.111a2.918 2.918 0 00-1.579-.467c-.28 0-.546.052-.804.125-.12.035-.241.065-.354.114a2.966 2.966 0 00-1.79 2.727c0 1.35.901 2.476 2.128 2.836l.016.004v12.374c.015.102 2.314 17.504-12.69 16.826-6.028-.273-9.539-3.893-10.949-7.263-2.108-5.042-1.226-10.549 5.741-13.113z" fill="#EC6A6A"/><path fill-rule="evenodd" clip-rule="evenodd" d="M69.85 91.897a4.34 4.34 0 01-2.56-2.141l.953-.5a3.282 3.282 0 004.435 1.386l.496.955a4.335 4.335 0 01-3.324.3z" fill="#242424"/><defs><linearGradient id="paint0_linear" x1="165.041" y1="49.066" x2="-29.013" y2="207.289" gradientUnits="userSpaceOnUse"><stop stop-color="#FFE6CF"/><stop offset="1" stop-color="#F88"/></linearGradient><linearGradient id="paint1_linear" x1="215.323" y1="-3.941" x2="86.189" y2="99.938" gradientUnits="userSpaceOnUse"><stop stop-color="#FFB36D"/><stop offset="1" stop-color="#F88"/></linearGradient></defs></svg>
